!!! OTL: Berkowitz225
!!! Chapter: 1
!!! Section: II
!!! Page: 52
!!! Mode: 
!!! Encoder: DJB
**kern
*staff1
*I"Piano
=1-
*clefF4
*k[b-]
*F:
*M3/4
4C/
4.A\
8C/
=2
4BB-/
4G\
4r
=3
4C/
4.B-\
8d\
=4
8c\L
8A\J
4C/
4r
=5
4D\
4.B-\
8D\
=6
4C/
4.c\
8A\
=7
4F\
4d\
4d\
=8
2d\
8c\L
8B-\J
=9
4A\
4.C/
8A\
=10
4G\
4B-\
4E\
=11
!!linebreak:original
4F\
4AA/
4C/
=12
2F\
4r
==
*-
